dist/img/icon-reaction-s2.svg

<svg width="20" height="20" viewBox="0 0 20 20" fill="none" xmlns="http://www.w3.org/2000/svg">
<path d="M10 0C4.48598 0 0 4.48598 0 10C0 15.514 4.48598 20 10 20C15.514 20 20 15.514 20 10C20 4.48598 15.514 0 10 0ZM10 18.75C5.17523 18.75 1.25 14.8248 1.25 10C1.25 5.17523 5.17523 1.25 10 1.25C14.8248 1.25 18.75 5.17523 18.75 10C18.75 14.8248 14.8248 18.75 10 18.75ZM11.4506 7.88105V7.44141C11.4506 6.52086 12.3093 5.77195 13.3647 5.77195C14.4201 5.77195 15.2787 6.52086 15.2787 7.44141V7.88125C15.2787 8.04701 15.2129 8.20598 15.0957 8.32319C14.9785 8.4404 14.8195 8.50625 14.6537 8.50625C14.488 8.50625 14.329 8.4404 14.2118 8.32319C14.0946 8.20598 14.0287 8.04701 14.0287 7.88125V7.44141C14.0287 7.2434 13.7448 7.02195 13.3647 7.02195C12.9846 7.02195 12.7006 7.2434 12.7006 7.44141V7.88125C12.7006 8.04701 12.6348 8.20598 12.5176 8.32319C12.4004 8.4404 12.2414 8.50625 12.0756 8.50625C11.9099 8.50625 11.7509 8.4404 11.6337 8.32319C11.5165 8.20598 11.4506 8.04701 11.4506 7.88125V7.88105ZM4.72105 7.88105V7.44141C4.72105 6.52086 5.57977 5.77195 6.63512 5.77195C7.69047 5.77195 8.54918 6.52086 8.54918 7.44141V7.88125C8.54918 8.04701 8.48333 8.20598 8.36612 8.32319C8.24891 8.4404 8.08994 8.50625 7.92418 8.50625C7.75842 8.50625 7.59945 8.4404 7.48224 8.32319C7.36503 8.20598 7.29918 8.04701 7.29918 7.88125V7.44141C7.29918 7.2434 7.01516 7.02195 6.63512 7.02195C6.25508 7.02195 5.97105 7.2434 5.97105 7.44141V7.88125C5.97105 8.04701 5.90521 8.20598 5.788 8.32319C5.67079 8.4404 5.51181 8.50625 5.34605 8.50625C5.18029 8.50625 5.02132 8.4404 4.90411 8.32319C4.7869 8.20598 4.72105 8.04701 4.72105 7.88125V7.88105ZM14.9427 11.3023H5.05727C4.9064 11.3023 4.76063 11.3569 4.64686 11.4559C4.53308 11.555 4.45899 11.6919 4.43824 11.8413C4.41696 11.9945 4.40626 12.1491 4.40621 12.3038C4.40621 13.4841 5.01348 14.5811 6.11613 15.3925C7.16117 16.1614 8.54047 16.585 10 16.585C11.4595 16.585 12.8388 16.1614 13.8838 15.3925C14.9864 14.5811 15.5937 13.4841 15.5937 12.3038C15.5937 12.1491 15.583 11.9946 15.5617 11.8414C15.541 11.692 15.4669 11.5551 15.3531 11.456C15.2394 11.3569 15.0936 11.3023 14.9427 11.3023ZM13.143 14.3856C12.3109 14.9977 11.1949 15.3348 10 15.3348C8.80512 15.3348 7.68887 14.9977 6.85695 14.3856C6.16617 13.8773 5.75223 13.2339 5.67098 12.5523H14.3289C14.2477 13.2339 13.8338 13.8773 13.143 14.3856Z" fill="#959EA8"/>
</svg>

<svg xmlns="http://www.w3.org/2000/svg" width="20" height="20" fill="none" viewBox="0 0 20 20"><path fill="#959EA8" d="M10 0C4.486 0 0 4.486 0 10s4.486 10 10 10 10-4.486 10-10S15.514 0 10 0m0 18.75c-4.825 0-8.75-3.925-8.75-8.75S5.175 1.25 10 1.25s8.75 3.925 8.75 8.75-3.925 8.75-8.75 8.75m1.45-10.869v-.44c0-.92.86-1.669 1.915-1.669s1.914.749 1.914 1.67v.44a.625.625 0 1 1-1.25 0v-.44c0-.199-.284-.42-.664-.42s-.664.221-.664.42v.44a.625.625 0 1 1-1.25 0m-6.729 0v-.44c0-.92.859-1.669 1.914-1.669s1.914.749 1.914 1.67v.44a.625.625 0 0 1-1.25 0v-.44c0-.199-.284-.42-.664-.42s-.664.221-.664.42v.44a.625.625 0 1 1-1.25 0m10.222 3.421H5.057a.625.625 0 0 0-.619.54 3 3 0 0 0-.032.462c0 1.18.607 2.277 1.71 3.089 1.045.768 2.424 1.192 3.884 1.192s2.839-.424 3.884-1.193c1.102-.81 1.71-1.908 1.71-3.088q0-.233-.032-.463a.625.625 0 0 0-.62-.539m-1.8 3.084c-.832.612-1.948.949-3.143.949s-2.311-.337-3.143-.95c-.69-.508-1.105-1.151-1.186-1.833h8.658c-.081.682-.495 1.325-1.186 1.834"/></svg>
